images/portal/4462.svg

<?xml version="1.0" standalone="no"?><!DOCTYPE svg PUBLIC "-//W3C//DTD SVG 1.1//EN" "http://www.w3.org/Graphics/SVG/1.1/DTD/svg11.dtd"><svg xmlns:xlink="http://www.w3.org/1999/xlink" version="1.1" class="highcharts-root" style="font-family:arial;font-size:12px;" xmlns="http://www.w3.org/2000/svg" width="485" height="415"><desc>Created with Highstock 5.0.14</desc><defs><clipPath id="highcharts-ses6lgw-6"><rect x="0" y="0" width="410" height="195" fill="none"></rect></clipPath><clipPath id="highcharts-ses6lgw-7"><rect x="0" y="0" width="410" height="195" fill="none"></rect></clipPath></defs><rect fill="#fbfbfb" class="highcharts-background" x="0" y="0" width="485" height="415" rx="0" ry="0"></rect><rect fill="none" class="highcharts-plot-background" x="65" y="160" width="410" height="195"></rect><g class="highcharts-pane-group"></g><g class="highcharts-grid highcharts-xaxis-grid "><path fill="none" class="highcharts-grid-line" d="M 146.5 160 L 146.5 355" opacity="1"></path><path fill="none" class="highcharts-grid-line" d="M 228.5 160 L 228.5 355" opacity="1"></path><path fill="none" class="highcharts-grid-line" d="M 310.5 160 L 310.5 355" opacity="1"></path><path fill="none" class="highcharts-grid-line" d="M 392.5 160 L 392.5 355" opacity="1"></path><path fill="none" class="highcharts-grid-line" d="M 474.5 160 L 474.5 355" opacity="1"></path><path fill="none" class="highcharts-grid-line" d="M 64.5 160 L 64.5 355" opacity="1"></path></g><g class="highcharts-grid highcharts-yaxis-grid "><path fill="none" stroke="#B9CFD7" stroke-width="0.5" class="highcharts-grid-line" d="M 65 355.25 L 475 355.25" opacity="1"></path><path fill="none" stroke="#B9CFD7" stroke-width="0.5" class="highcharts-grid-line" d="M 65 306.25 L 475 306.25" opacity="1"></path><path fill="none" stroke="#B9CFD7" stroke-width="0.5" class="highcharts-grid-line" d="M 65 258.25 L 475 258.25" opacity="1"></path><path fill="none" stroke="#B9CFD7" stroke-width="0.5" class="highcharts-grid-line" d="M 65 209.25 L 475 209.25" opacity="1"></path><path fill="none" stroke="#B9CFD7" stroke-width="0.5" class="highcharts-grid-line" d="M 65 159.75 L 475 159.75" opacity="1"></path></g><rect fill="none" class="highcharts-plot-border" x="65" y="160" width="410" height="195"></rect><g class="highcharts-axis highcharts-xaxis "><path fill="none" class="highcharts-tick" stroke="#FFFFFF" stroke-width="1" d="M 146.5 355 L 146.5 365" opacity="1"></path><path fill="none" class="highcharts-tick" stroke="#FFFFFF" stroke-width="1" d="M 228.5 355 L 228.5 365" opacity="1"></path><path fill="none" class="highcharts-tick" stroke="#FFFFFF" stroke-width="1" d="M 310.5 355 L 310.5 365" opacity="1"></path><path fill="none" class="highcharts-tick" stroke="#FFFFFF" stroke-width="1" d="M 392.5 355 L 392.5 365" opacity="1"></path><path fill="none" class="highcharts-tick" stroke="#FFFFFF" stroke-width="1" d="M 475.5 355 L 475.5 365" opacity="1"></path><path fill="none" class="highcharts-tick" stroke="#FFFFFF" stroke-width="1" d="M 64.5 355 L 64.5 365" opacity="1"></path><path fill="none" class="highcharts-axis-line" stroke="#B9CFD7" stroke-width="0.5" d="M 65 355.25 L 475 355.25"></path></g><g class="highcharts-axis highcharts-yaxis "><path fill="none" class="highcharts-axis-line" d="M 65 160 L 65 355"></path></g><g class="highcharts-series-group"><g class="highcharts-series highcharts-series-0 highcharts-column-series highcharts-color-undefined " transform="translate(65,160) scale(1 1)" clip-path="url(#highcharts-ses6lgw-7)"><rect x="16" y="121" width="50" height="75" fill="#933F8D" class="highcharts-point"></rect><rect x="98" y="120" width="50" height="76" fill="#933F8D" class="highcharts-point"></rect><rect x="180" y="122" width="50" height="74" fill="#933F8D" class="highcharts-point"></rect><rect x="262" y="119" width="50" height="77" fill="#933F8D" class="highcharts-point"></rect><rect x="344" y="121" width="50" height="75" fill="#933F8D" class="highcharts-point"></rect></g><g class="highcharts-markers highcharts-series-0 highcharts-column-series highcharts-color-undefined " transform="translate(65,160) scale(1 1)" clip-path="none"></g><g class="highcharts-series highcharts-series-1 highcharts-column-series highcharts-color-undefined " transform="translate(65,160) scale(1 1)" clip-path="url(#highcharts-ses6lgw-7)"><rect x="16" y="98" width="50" height="23" fill="#B475AB" class="highcharts-point"></rect><rect x="98" y="95" width="50" height="25" fill="#B475AB" class="highcharts-point"></rect><rect x="180" y="96" width="50" height="26" fill="#B475AB" class="highcharts-point"></rect><rect x="262" y="93" width="50" height="26" fill="#B475AB" class="highcharts-point"></rect><rect x="344" y="93" width="50" height="28" fill="#B475AB" class="highcharts-point"></rect></g><g class="highcharts-markers highcharts-series-1 highcharts-column-series highcharts-color-undefined " transform="translate(65,160) scale(1 1)" clip-path="none"></g><g class="highcharts-series highcharts-series-2 highcharts-column-series highcharts-color-undefined " transform="translate(65,160) scale(1 1)" clip-path="url(#highcharts-ses6lgw-7)"><rect x="16" y="55" width="50" height="43" fill="#FABD24" class="highcharts-point"></rect><rect x="98" y="50" width="50" height="45" fill="#FABD24" class="highcharts-point"></rect><rect x="180" y="50" width="50" height="46" fill="#FABD24" class="highcharts-point"></rect><rect x="262" y="46" width="50" height="47" fill="#FABD24" class="highcharts-point"></rect><rect x="344" y="44" width="50" height="49" fill="#FABD24" class="highcharts-point"></rect></g><g class="highcharts-markers highcharts-series-2 highcharts-column-series highcharts-color-undefined " transform="translate(65,160) scale(1 1)" clip-path="none"></g><g class="highcharts-series highcharts-series-3 highcharts-column-series highcharts-color-undefined " transform="translate(65,160) scale(1 1)" clip-path="url(#highcharts-ses6lgw-7)"><rect x="16" y="51" width="50" height="4" fill="#FFDA80" class="highcharts-point"></rect><rect x="98" y="46" width="50" height="4" fill="#FFDA80" class="highcharts-point"></rect><rect x="180" y="45" width="50" height="5" fill="#FFDA80" class="highcharts-point"></rect><rect x="262" y="41" width="50" height="5" fill="#FFDA80" class="highcharts-point"></rect><rect x="344" y="40" width="50" height="4" fill="#FFDA80" class="highcharts-point"></rect></g><g class="highcharts-markers highcharts-series-3 highcharts-column-series highcharts-color-undefined " transform="translate(65,160) scale(1 1)" clip-path="none"></g><g class="highcharts-series highcharts-series-4 highcharts-column-series highcharts-color-undefined " transform="translate(65,160) scale(1 1)" clip-path="url(#highcharts-ses6lgw-7)"><rect x="16" y="51" width="50" height="0" fill="#4BACC6" class="highcharts-point"></rect><rect x="98" y="46" width="50" height="0" fill="#4BACC6" class="highcharts-point"></rect><rect x="180" y="45" width="50" height="0" fill="#4BACC6" class="highcharts-point"></rect><rect x="262" y="41" width="50" height="0" fill="#4BACC6" class="highcharts-point"></rect><rect x="344" y="40" width="50" height="0" fill="#4BACC6" class="highcharts-point"></rect></g><g class="highcharts-markers highcharts-series-4 highcharts-column-series highcharts-color-undefined " transform="translate(65,160) scale(1 1)" clip-path="none"></g></g><text x="10" text-anchor="start" class="highcharts-title" style="color:#000000;font-size:14px;font-weight:bold;fill:#000000;" y="21"><tspan>Anzahl Personen mit und ohne Migrationshintergrund nach</tspan><tspan dy="17" x="10">Staatsangehörigkeit (Schweiz / Ausland) 2010 bis 2014</tspan><title>Anzahl Personen mit und ohne Migrationshintergrund nach Staatsangehörigkeit (Schweiz / Ausland) 2010 bis 2014</title></text><g class="highcharts-legend" transform="translate(56,55)"><rect fill="none" class="highcharts-legend-box" rx="0" ry="0" x="0" y="0" width="324" height="106" visibility="visible"></rect><g><g><g class="highcharts-legend-item highcharts-column-series highcharts-color-undefined highcharts-series-4" transform="translate(8,3)"><text x="21" style="color:#333333;font-size:12px;font-weight:normal;cursor:pointer;fill:#333333;" text-anchor="start" y="15"><tspan>Ausländer ohne Migrationshintergrund (3. Generation)</tspan></text><rect x="2" y="4" width="12" height="12" fill="#4BACC6" class="highcharts-point"></rect></g><g class="highcharts-legend-item highcharts-column-series highcharts-color-undefined highcharts-series-3" transform="translate(8,22)"><text x="21" y="15" style="color:#333333;font-size:12px;font-weight:normal;cursor:pointer;fill:#333333;" text-anchor="start"><tspan>Ausländer mit Migrationshintergrund (2. Generation)</tspan></text><rect x="2" y="4" width="12" height="12" fill="#FFDA80" class="highcharts-point"></rect></g><g class="highcharts-legend-item highcharts-column-series highcharts-color-undefined highcharts-series-2" transform="translate(8,41)"><text x="21" y="15" style="color:#333333;font-size:12px;font-weight:normal;cursor:pointer;fill:#333333;" text-anchor="start"><tspan>Ausländer mit Migrationshintergrund (1. Generation)</tspan></text><rect x="2" y="4" width="12" height="12" fill="#FABD24" class="highcharts-point"></rect></g><g class="highcharts-legend-item highcharts-column-series highcharts-color-undefined highcharts-series-1" transform="translate(8,60)"><text x="21" y="15" style="color:#333333;font-size:12px;font-weight:normal;cursor:pointer;fill:#333333;" text-anchor="start"><tspan>Schweiz mit Migrationshintergrund</tspan></text><rect x="2" y="4" width="12" height="12" fill="#B475AB" class="highcharts-point"></rect></g><g class="highcharts-legend-item highcharts-column-series highcharts-color-undefined highcharts-series-0" transform="translate(8,79)"><text x="21" y="15" style="color:#333333;font-size:12px;font-weight:normal;cursor:pointer;fill:#333333;" text-anchor="start"><tspan>Schweiz ohne Migrationshintergrund</tspan></text><rect x="2" y="4" width="12" height="12" fill="#933F8D" class="highcharts-point"></rect></g></g></g></g><g class="highcharts-axis-labels highcharts-xaxis-labels "><text x="106" style="color:#000000;cursor:default;font-size:11px;fill:#000000;" text-anchor="middle" transform="translate(0,0)" y="374" opacity="1"><tspan>2010</tspan></text><text x="188" style="color:#000000;cursor:default;font-size:11px;fill:#000000;" text-anchor="middle" transform="translate(0,0)" y="374" opacity="1"><tspan>2011</tspan></text><text x="270" style="color:#000000;cursor:default;font-size:11px;fill:#000000;" text-anchor="middle" transform="translate(0,0)" y="374" opacity="1"><tspan>2012</tspan></text><text x="352" style="color:#000000;cursor:default;font-size:11px;fill:#000000;" text-anchor="middle" transform="translate(0,0)" y="374" opacity="1"><tspan>2013</tspan></text><text x="434" style="color:#000000;cursor:default;font-size:11px;fill:#000000;" text-anchor="middle" transform="translate(0,0)" y="374" opacity="1"><tspan>2014</tspan></text></g><g class="highcharts-axis-labels highcharts-yaxis-labels "><text x="50" style="color:#000000;cursor:default;font-size:11px;fill:#000000;" text-anchor="end" transform="translate(0,0)" y="360" opacity="1"><tspan>0</tspan></text><text x="50" style="color:#000000;cursor:default;font-size:11px;fill:#000000;" text-anchor="end" transform="translate(0,0)" y="311" opacity="1"><tspan>50 000</tspan></text><text x="50" style="color:#000000;cursor:default;font-size:11px;fill:#000000;" text-anchor="end" transform="translate(0,0)" y="262" opacity="1"><tspan>100 000</tspan></text><text x="50" style="color:#000000;cursor:default;font-size:11px;fill:#000000;" text-anchor="end" transform="translate(0,0)" y="213" opacity="1"><tspan>150 000</tspan></text><text x="50" style="color:#000000;cursor:default;font-size:11px;fill:#000000;" text-anchor="end" transform="translate(0,0)" y="165" opacity="1"><tspan>200 000</tspan></text></g><text x="10" class="highcharts-credits" text-anchor="start" style="cursor:default;color:#000000;font-size:10px;fill:#000000;" y="400"><tspan>Quelle: Bundesamt für Statistik BFS, Strukturerhebung (SE)</tspan></text></svg>

<svg class="highcharts-root" xmlns="http://www.w3.org/2000/svg" width="485" height="415" font-family="arial" font-size="12">
    <defs>
        <clipPath id="a">
            <path fill="none" d="M0 0h410v195H0z"/>
        </clipPath>
    </defs>
    <rect fill="#fbfbfb" class="highcharts-background" width="485" height="415" rx="0" ry="0"/>
    <path fill="none" class="highcharts-plot-background" d="M65 160h410v195H65z"/>
    <g class="highcharts-grid highcharts-xaxis-grid">
        <path fill="none" class="highcharts-grid-line" d="M146.5 160v195m82-195v195m82-195v195m82-195v195m82-195v195m-410-195v195"/>
    </g>
    <g class="highcharts-grid highcharts-yaxis-grid">
        <path fill="none" stroke="#B9CFD7" stroke-width=".5" class="highcharts-grid-line" d="M65 355.25h410m-410-49h410m-410-48h410m-410-49h410m-410-49.5h410"/>
    </g>
    <path fill="none" class="highcharts-plot-border" d="M65 160h410v195H65z"/>
    <g class="highcharts-axis highcharts-xaxis">
        <path fill="none" class="highcharts-tick" stroke="#FFF" d="M146.5 355v10m82-10v10m82-10v10m82-10v10m83-10v10m-411-10v10"/>
        <path fill="none" class="highcharts-axis-line" stroke="#B9CFD7" stroke-width=".5" d="M65 355.25h410"/>
    </g>
    <g class="highcharts-axis highcharts-yaxis">
        <path fill="none" class="highcharts-axis-line" d="M65 160v195"/>
    </g>
    <g class="highcharts-series-group">
        <g class="highcharts-series highcharts-series-0 highcharts-column-series highcharts-color-undefined" transform="translate(65 160)" clip-path="url(#a)">
            <path fill="#933F8D" class="highcharts-point" d="M16 121h50v75H16zm82-1h50v76H98zm82 2h50v74h-50zm82-3h50v77h-50zm82 2h50v75h-50z"/>
        </g>
        <g class="highcharts-series highcharts-series-1 highcharts-column-series highcharts-color-undefined" transform="translate(65 160)" clip-path="url(#a)">
            <path fill="#B475AB" class="highcharts-point" d="M16 98h50v23H16zm82-3h50v25H98zm82 1h50v26h-50zm82-3h50v26h-50zm82 0h50v28h-50z"/>
        </g>
        <g class="highcharts-series highcharts-series-2 highcharts-column-series highcharts-color-undefined" transform="translate(65 160)" clip-path="url(#a)">
            <path fill="#FABD24" class="highcharts-point" d="M16 55h50v43H16zm82-5h50v45H98zm82 0h50v46h-50zm82-4h50v47h-50zm82-2h50v49h-50z"/>
        </g>
        <g class="highcharts-series highcharts-series-3 highcharts-column-series highcharts-color-undefined" transform="translate(65 160)" clip-path="url(#a)">
            <path fill="#FFDA80" class="highcharts-point" d="M16 51h50v4H16zm82-5h50v4H98zm82-1h50v5h-50zm82-4h50v5h-50zm82-1h50v4h-50z"/>
        </g>
    </g>
    <text x="10" class="highcharts-title" y="21" color="#000" font-size="14" font-weight="700">
        <tspan>Anzahl Personen mit und ohne Migrationshintergrund nach</tspan><tspan dy="17" x="10">Staatsangehörigkeit (Schweiz / Ausland) 2010 bis 2014</tspan><title>Anzahl Personen mit und ohne Migrationshintergrund nach Staatsangehörigkeit (Schweiz / Ausland) 2010 bis 2014</title>
    </text>
    <g class="highcharts-legend" transform="translate(56 55)">
        <rect fill="none" class="highcharts-legend-box" rx="0" ry="0" width="324" height="106"/>
        <g class="highcharts-legend-item highcharts-column-series highcharts-color-undefined highcharts-series-4">
            <text x="21" y="15" color="#333" font-weight="400" cursor="pointer" fill="#333" transform="translate(8 3)">
                <tspan>Ausländer ohne Migrationshintergrund (3. Generation)</tspan>
            </text>
            <path fill="#4BACC6" class="highcharts-point" d="M10 7h12v12H10z"/>
        </g>
        <g class="highcharts-legend-item highcharts-column-series highcharts-color-undefined highcharts-series-3">
            <text x="21" y="15" color="#333" font-weight="400" cursor="pointer" fill="#333" transform="translate(8 22)">
                <tspan>Ausländer mit Migrationshintergrund (2. Generation)</tspan>
            </text>
            <path fill="#FFDA80" class="highcharts-point" d="M10 26h12v12H10z"/>
        </g>
        <g class="highcharts-legend-item highcharts-column-series highcharts-color-undefined highcharts-series-2">
            <text x="21" y="15" color="#333" font-weight="400" cursor="pointer" fill="#333" transform="translate(8 41)">
                <tspan>Ausländer mit Migrationshintergrund (1. Generation)</tspan>
            </text>
            <path fill="#FABD24" class="highcharts-point" d="M10 45h12v12H10z"/>
        </g>
        <g class="highcharts-legend-item highcharts-column-series highcharts-color-undefined highcharts-series-1">
            <text x="21" y="15" color="#333" font-weight="400" cursor="pointer" fill="#333" transform="translate(8 60)">
                <tspan>Schweiz mit Migrationshintergrund</tspan>
            </text>
            <path fill="#B475AB" class="highcharts-point" d="M10 64h12v12H10z"/>
        </g>
        <g class="highcharts-legend-item highcharts-column-series highcharts-color-undefined highcharts-series-0">
            <text x="21" y="15" color="#333" font-weight="400" cursor="pointer" fill="#333" transform="translate(8 79)">
                <tspan>Schweiz ohne Migrationshintergrund</tspan>
            </text>
            <path fill="#933F8D" class="highcharts-point" d="M10 83h12v12H10z"/>
        </g>
    </g>
    <g class="highcharts-axis-labels highcharts-xaxis-labels" text-anchor="middle" color="#000" cursor="default" font-size="11">
        <text x="106" y="374">
            <tspan>2010</tspan>
        </text>
        <text x="188" y="374">
            <tspan>2011</tspan>
        </text>
        <text x="270" y="374">
            <tspan>2012</tspan>
        </text>
        <text x="352" y="374">
            <tspan>2013</tspan>
        </text>
        <text x="434" y="374">
            <tspan>2014</tspan>
        </text>
    </g>
    <g class="highcharts-axis-labels highcharts-yaxis-labels" text-anchor="end" color="#000" cursor="default" font-size="11">
        <text x="50" y="360">
            <tspan>0</tspan>
        </text>
        <text x="50" y="311">
            <tspan>50 000</tspan>
        </text>
        <text x="50" y="262">
            <tspan>100 000</tspan>
        </text>
        <text x="50" y="213">
            <tspan>150 000</tspan>
        </text>
        <text x="50" y="165">
            <tspan>200 000</tspan>
        </text>
    </g>
    <text x="10" class="highcharts-credits" y="400" cursor="default" color="#000" font-size="10">
        <tspan>Quelle: Bundesamt für Statistik BFS, Strukturerhebung (SE)</tspan>
    </text>
</svg>
